dist/assets/img/marker.svg

<svg width="16" height="20" viewBox="0 0 16 20" fill="none" xmlns="http://www.w3.org/2000/svg">
	<path d="M10.2411 17.0297L9.65091 16.5669L10.2411 17.0297ZM5.4738 17.0297L4.88363 17.4925L5.4738 17.0297ZM7.85744 19.0055V18.2555V19.0055ZM13.9649 8.3792C13.9649 9.40095 13.4291 10.787 12.5676 12.3101C11.7227 13.8038 10.6296 15.3189 9.65091 16.5669L10.8313 17.4925C11.8325 16.2157 12.9762 14.6344 13.8732 13.0486C14.7537 11.492 15.4649 9.81518 15.4649 8.3792H13.9649ZM6.06397 16.5669C5.08531 15.3189 3.99217 13.8038 3.14725 12.3101C2.28574 10.787 1.75 9.40095 1.75 8.3792H0.25C0.25 9.81518 0.961224 11.492 1.84164 13.0486C2.73866 14.6344 3.88241 16.2157 4.88363 17.4925L6.06397 16.5669ZM1.75 8.3792C1.75 4.66525 4.53524 1.75 7.85744 1.75V0.25C3.60512 0.25 0.25 3.94231 0.25 8.3792H1.75ZM7.85744 1.75C11.1796 1.75 13.9649 4.66525 13.9649 8.3792H15.4649C15.4649 3.94231 12.1098 0.25 7.85744 0.25V1.75ZM9.65091 16.5669C9.118 17.2464 8.775 17.6797 8.47046 17.9564C8.19803 18.2038 8.03212 18.2555 7.85744 18.2555V19.7555C8.517 19.7555 9.02644 19.4778 9.47904 19.0667C9.89952 18.6847 10.3312 18.1301 10.8313 17.4925L9.65091 16.5669ZM4.88363 17.4925C5.38365 18.1301 5.81536 18.6847 6.23585 19.0667C6.68844 19.4778 7.19788 19.7555 7.85744 19.7555V18.2555C7.68276 18.2555 7.51685 18.2038 7.24442 17.9564C6.93988 17.6797 6.59688 17.2464 6.06397 16.5669L4.88363 17.4925ZM4.5359 8.71462C4.5359 10.5491 6.023 12.0362 7.85744 12.0362V10.5362C6.85143 10.5362 6.0359 9.72063 6.0359 8.71462H4.5359ZM7.85744 12.0362C9.69188 12.0362 11.179 10.5491 11.179 8.71462H9.67898C9.67898 9.72063 8.86345 10.5362 7.85744 10.5362V12.0362ZM11.179 8.71462C11.179 6.88018 9.69188 5.39308 7.85744 5.39308V6.89308C8.86345 6.89308 9.67898 7.70861 9.67898 8.71462H11.179ZM7.85744 5.39308C6.023 5.39308 4.5359 6.88018 4.5359 8.71462H6.0359C6.0359 7.70861 6.85143 6.89308 7.85744 6.89308V5.39308Z" fill="#72BF44" />
</svg>

<svg width="16" height="20" fill="none" xmlns="http://www.w3.org/2000/svg"><path d="m10.241 17.03-.59-.463.59.463Zm-4.767 0-.59.462.59-.462Zm2.383 1.976v-.75.75Zm6.108-10.627c0 1.022-.536 2.408-1.397 3.931-.845 1.494-1.938 3.009-2.917 4.257l1.18.925c1.002-1.276 2.145-2.858 3.042-4.443.88-1.557 1.592-3.234 1.592-4.67h-1.5Zm-7.901 8.188c-.979-1.248-2.072-2.763-2.917-4.257C2.286 10.787 1.75 9.4 1.75 8.38H.25c0 1.435.711 3.112 1.592 4.669.897 1.585 2.04 3.167 3.042 4.444l1.18-.926ZM1.75 8.379c0-3.714 2.785-6.629 6.107-6.629V.25C3.605.25.25 3.942.25 8.38h1.5ZM7.857 1.75c3.323 0 6.108 2.915 6.108 6.63h1.5c0-4.438-3.355-8.13-7.608-8.13v1.5Zm1.794 14.817c-.533.68-.876 1.113-1.18 1.39-.273.247-.439.299-.614.299v1.5c.66 0 1.17-.278 1.622-.69.42-.381.852-.936 1.352-1.573l-1.18-.926Zm-4.767.925c.5.638.931 1.193 1.352 1.575.452.41.962.689 1.621.689v-1.5c-.174 0-.34-.052-.613-.3-.304-.276-.647-.71-1.18-1.39l-1.18.927Zm-.348-8.777a3.322 3.322 0 0 0 3.321 3.321v-1.5a1.822 1.822 0 0 1-1.821-1.821h-1.5Zm3.321 3.321a3.322 3.322 0 0 0 3.322-3.321h-1.5a1.822 1.822 0 0 1-1.822 1.821v1.5Zm3.322-3.321a3.322 3.322 0 0 0-3.322-3.322v1.5c1.006 0 1.822.816 1.822 1.822h1.5ZM7.857 5.393a3.322 3.322 0 0 0-3.321 3.322h1.5c0-1.006.815-1.822 1.821-1.822v-1.5Z" fill="#72BF44"/></svg>
